img/memberpress-subscriptions.svg

<svg aria-hidden="true" focusable="false" data-prefix="fas" data-icon="repeat" class="svg-inline--fa fa-repeat fa-w-16" role="img" xmlns="http://www.w3.org/2000/svg" viewBox="0 0 512 512"><path fill="" d="M512 256c0 88.224-71.775 160-160 160H170.067l34.512 32.419c9.875 9.276 10.119 24.883.539 34.464l-10.775 10.775c-9.373 9.372-24.568 9.372-33.941 0l-92.686-92.686c-9.373-9.373-9.373-24.568 0-33.941l92.686-92.686c9.373-9.373 24.568-9.373 33.941 0l10.775 10.775c9.581 9.581 9.337 25.187-.539 34.464L170.067 352H352c52.935 0 96-43.065 96-96 0-13.958-2.996-27.228-8.376-39.204-4.061-9.039-2.284-19.626 4.723-26.633l12.183-12.183c11.499-11.499 30.965-8.526 38.312 5.982C505.814 205.624 512 230.103 512 256zM72.376 295.204C66.996 283.228 64 269.958 64 256c0-52.935 43.065-96 96-96h181.933l-34.512 32.419c-9.875 9.276-10.119 24.883-.539 34.464l10.775 10.775c9.373 9.372 24.568 9.372 33.941 0l92.686-92.686c9.373-9.373 9.373-24.568 0-33.941l-92.686-92.686c-9.373-9.373-24.568-9.373-33.941 0L306.882 29.12c-9.581 9.581-9.337 25.187.539 34.464L341.933 96H160C71.775 96 0 167.776 0 256c0 25.897 6.186 50.376 17.157 72.039 7.347 14.508 26.813 17.481 38.312 5.982l12.183-12.183c7.008-7.008 8.786-17.595 4.724-26.634z"></path></svg>

<?xml version="1.0" encoding="UTF-8" standalone="no"?>
<!DOCTYPE svg PUBLIC "-//W3C//DTD SVG 1.1//EN" "http://www.w3.org/Graphics/SVG/1.1/DTD/svg11.dtd">
<svg width="100%" height="100%" viewBox="0 0 512 512" version="1.1" xmlns="http://www.w3.org/2000/svg" xmlns:xlink="http://www.w3.org/1999/xlink" xml:space="preserve" xmlns:serif="http://www.serif.com/" style="fill-rule:evenodd;clip-rule:evenodd;stroke-linejoin:round;stroke-miterlimit:2;">
    <path d="M512,256C512,344.224 440.225,416 352,416L170.067,416L204.579,448.419C214.454,457.695 214.698,473.302 205.118,482.883L194.343,493.658C184.97,503.03 169.775,503.03 160.402,493.658L67.716,400.972C58.343,391.599 58.343,376.404 67.716,367.031L160.402,274.345C169.775,264.972 184.97,264.972 194.343,274.345L205.118,285.12C214.699,294.701 214.455,310.307 204.579,319.584L170.067,352L352,352C404.935,352 448,308.935 448,256C448,242.042 445.004,228.772 439.624,216.796C435.563,207.757 437.34,197.17 444.347,190.163L456.53,177.98C468.029,166.481 487.495,169.454 494.842,183.962C505.814,205.624 512,230.103 512,256ZM72.376,295.204C66.996,283.228 64,269.958 64,256C64,203.065 107.065,160 160,160L341.933,160L307.421,192.419C297.546,201.695 297.302,217.302 306.882,226.883L317.657,237.658C327.03,247.03 342.225,247.03 351.598,237.658L444.284,144.972C453.657,135.599 453.657,120.404 444.284,111.031L351.598,18.345C342.225,8.972 327.03,8.972 317.657,18.345L306.882,29.12C297.301,38.701 297.545,54.307 307.421,63.584L341.933,96L160,96C71.775,96 0,167.776 0,256C0,281.897 6.186,306.376 17.157,328.039C24.504,342.547 43.97,345.52 55.469,334.021L67.652,321.838C74.66,314.83 76.438,304.243 72.376,295.204Z" style="fill:white;fill-rule:nonzero;"/>
</svg>
